X: 27547
T: Monaghan, The
R: jig
M: 6/8
K: Eminor
|:BGE E2e|BGE FGA|BGE E2d|AFD FGA|
BGE E2e|BGE FGA|1 d^cd ABG|FDF AFA:|2 d^cB ABG|FDF AFD||
|:EGB efg|fe^d e2F|EGB eBG|FDF AFD|
EGB efg|fdf e^ce|1 dcB ABG|FDF AFD:|2 d^cd ABG|FDF AFA||
|:g2e efe|geg bge|g2e efg|fdf agf|
g2e efe|geg bge|1 d^cd ABG|FDF AFA:|2 d^cB ABG|FDF AFD||
|:EGB eBG|BGE FGF|EGB eBG|FDF AGF|
EGB GBe|Beg egb|fed ABG|1 FDF AGF:|2 FED D3||

